!!!SOCIAL_FUNCTION:	songs connected with legends
!!!PDT:	1929
!!!OTL: No_20_Am_I_an_Eagle?.krn
!!!REG: Southwest
!!!LANG: Non-Tone
!!!LING_GROUP: Uto-Aztecan
**kern
*staff1
=1-
*clefF4
*k[b-e-a-d-g-]
*M4/8
8B-\
8B-\
8B-\
8F\
=2||
*M5/8
4.B-\
8F\L
16F\L
16D-\JJ
=3||
*M4/8
4F\
8D-\
8r
=4
4G-\
8G-\
16F\LL
16D-\JJ
=5
4F\
8D-\
8BB-/
=6
4.BB-/
8C/
=7
16C/LK
8.BB-/J
4BB-/
=8||
*M5/8
4BB-/
4r
8BB-/
=9||
*M4/8
4.G-\
8F\
=10
16F\LK
[8.D-\J
8D-\]
8C/
=11||
*M3/8
16C/LK
8.BB-/
8BB-/J
=12||
*M4/8
4.BB-/
8BB-/
=13
16C/LK
8.BB-/J
8BB-/
8BB-/
=14
4.BB-/
8BB-/
=15
16C/LK
8.BB-/J
4BB-/
=16
2BB-/
==
*-
